X:2
T:Skye dance 2
R:reel
M:4/4
L:1/8
K:Amix
|: e2ee feef| affe e2e2 | f2ag f2e2 | feed d2dd | afff  a2ee | feed d2f2 :| 
|:e2ee ecc2 | c2dc e2e2 | e2ee ecc2  | c2dB A2A2 :|

